X:1
T:Title
%%score { ( 1 3 ) | ( 2 4 ) }
L:1/8
Q:1/4=114
M:4/4
K:D
V:1 treble nm="Grand Piano"
V:3 treble 
V:2 bass 
V:4 bass 
V:1
 [A,DF]4 [A,CE]2 [F,D]2 | [B,DG]4 [A,DF]4 | [DB]2 [DB]2 [DA]2 [CE]2 | [DF]6 [DF]2 | z4 A4 | %5
w: John~Yoakley * *|||||
 d2 c2 [DFB]2 [CFA]2 | [B,EA]4 [B,^G]4 | [A,CA]6 [CEA]2 | [DA]4 [A,EG]4 | F2 F2 E2 D2 | B4 B4 | %11
w: ||||||
 ^A6 F2 | z4 c4 | [Dd]2 [DB]2 [G,DG]2 [A,DF]2 | z4 [CE]4 | [F,D]8 |] %16
w: |||||
V:2
 D,4 A,,2 B,,2 | G,,2 B,,2 D,4 | [G,,G,]2 [G,,F,]2 [A,,E,]2 [A,,A,]2 | [D,A,]6 [B,,B,]2 | %4
 [E,B,D]4 C2 z2 | [^G,B,E]2 [A,CE]2 D,2 D,2 | E,4 z2 D2 | A,,6 A,,2 | B,,4 C,4 | %9
 [D,A,D]2 [D,A,D]2 [E,G,C]2 [F,A,]2 | [G,D]4 [G,B,E]4 | [F,CF]6 [E,^A,]2 | [D,B,]4 F2 z2 | %13
 [B,,B,]2 [B,,F,]2 B,,2 A,,2 | G,,4 z2 G,2 | D,8 |] %16
V:3
 x8 | x8 | x8 | x8 | ^G4 z2 F2 | x8 | z4 E2 z2 | x8 | x8 | x8 | x8 | x8 | [FB]4 z2 E2 | x8 | %14
 [B,DE]4 A,2 z2 | x8 |] %16
V:4
 x8 | x8 | x8 | x8 | z4 [F,A,]4 | x8 | z4 E,4 | x8 | x8 | x8 | x8 | x8 | z4 [F,^A,]4 | x8 | %14
 z4 A,,4 | x8 |] %16

